inst/assets/svg/wi-night-storm-showers.svg

<?xml version="1.0" encoding="UTF-8"?>
<svg xmlns="http://www.w3.org/2000/svg" xmlns:xlink="http://www.w3.org/1999/xlink" width="30pt" height="30pt" viewBox="0 0 30 30" version="1.1">
<g id="surface791">
<path style=" stroke:none;fill-rule:nonzero;fill:rgb(0%,0%,0%);fill-opacity:1;" d="M 4.25 16.859375 C 4.25 17.960938 4.578125 18.949219 5.25 19.839844 C 5.921875 20.71875 6.769531 21.320313 7.820313 21.640625 L 7.171875 23.300781 C 7.128906 23.441406 7.171875 23.511719 7.308594 23.511719 L 9.429688 23.511719 L 8.289063 27.601563 L 8.578125 27.601563 L 12.660156 22.109375 C 12.699219 22.070313 12.699219 22.019531 12.671875 21.96875 C 12.640625 21.921875 12.589844 21.898438 12.519531 21.898438 L 10.351563 21.898438 L 12.820313 17.230469 C 12.890625 17.089844 12.851563 17.011719 12.691406 17.011719 L 9.730469 17.011719 C 9.640625 17.011719 9.570313 17.058594 9.539063 17.148438 L 8.429688 20.078125 C 7.71875 19.898438 7.128906 19.511719 6.648438 18.910156 C 6.179688 18.308594 5.941406 17.640625 5.941406 16.890625 C 5.941406 16.050781 6.21875 15.320313 6.789063 14.699219 C 7.359375 14.078125 8.058594 13.730469 8.890625 13.648438 L 9.410156 13.578125 C 9.539063 13.578125 9.609375 13.519531 9.609375 13.410156 L 9.679688 12.890625 C 9.789063 11.800781 10.238281 10.890625 11.050781 10.171875 C 11.859375 9.441406 12.808594 9.078125 13.910156 9.078125 C 15 9.078125 15.960938 9.441406 16.769531 10.171875 C 17.578125 10.898438 18.050781 11.808594 18.171875 12.890625 L 18.238281 13.46875 C 18.238281 13.578125 18.300781 13.640625 18.421875 13.640625 L 20.039063 13.640625 C 20.949219 13.640625 21.71875 13.960938 22.371094 14.589844 C 23.011719 15.21875 23.339844 15.988281 23.339844 16.871094 C 23.339844 17.730469 23.039063 18.46875 22.441406 19.101563 C 21.839844 19.730469 21.109375 20.070313 20.238281 20.140625 C 20.121094 20.140625 20.050781 20.199219 20.050781 20.320313 L 20.050781 21.699219 C 20.050781 21.808594 20.109375 21.871094 20.238281 21.871094 C 21.570313 21.828125 22.699219 21.320313 23.628906 20.351563 C 24.558594 19.378906 25.019531 18.230469 25.019531 16.878906 C 25.019531 16.148438 24.878906 15.488281 24.609375 14.878906 C 25.371094 13.878906 25.75 12.78125 25.75 11.589844 C 25.75 10.878906 25.609375 10.199219 25.328125 9.550781 C 25.050781 8.898438 24.671875 8.351563 24.210938 7.878906 C 23.75 7.410156 23.179688 7.039063 22.53125 6.761719 C 21.878906 6.480469 21.199219 6.339844 20.5 6.339844 C 19.761719 6.339844 19.058594 6.488281 18.378906 6.789063 C 17.710938 7.089844 17.121094 7.511719 16.640625 8.050781 C 15.820313 7.609375 14.921875 7.390625 13.941406 7.390625 C 12.519531 7.390625 11.261719 7.828125 10.171875 8.699219 C 9.078125 9.570313 8.371094 10.699219 8.058594 12.070313 C 6.949219 12.328125 6.039063 12.898438 5.320313 13.800781 C 4.601563 14.699219 4.25 15.710938 4.25 16.859375 Z M 12.421875 26.730469 C 12.421875 26.910156 12.46875 27.078125 12.578125 27.238281 C 12.691406 27.410156 12.839844 27.511719 13.039063 27.539063 C 13.058594 27.539063 13.089844 27.539063 13.121094 27.550781 C 13.148438 27.558594 13.191406 27.558594 13.210938 27.558594 C 13.230469 27.558594 13.261719 27.558594 13.289063 27.558594 C 13.71875 27.53125 13.980469 27.328125 14.089844 26.949219 L 14.378906 25.890625 C 14.441406 25.671875 14.410156 25.460938 14.289063 25.261719 C 14.171875 25.058594 13.988281 24.921875 13.761719 24.851563 C 13.539063 24.789063 13.328125 24.820313 13.128906 24.929688 C 12.929688 25.050781 12.789063 25.230469 12.71875 25.460938 L 12.46875 26.460938 C 12.441406 26.640625 12.421875 26.71875 12.421875 26.730469 Z M 13.761719 21.960938 C 13.761719 22.109375 13.808594 22.261719 13.910156 22.410156 C 14.011719 22.558594 14.171875 22.671875 14.371094 22.75 C 14.589844 22.828125 14.800781 22.808594 15 22.699219 C 15.199219 22.589844 15.328125 22.410156 15.398438 22.171875 L 15.699219 21.128906 C 15.761719 20.878906 15.738281 20.648438 15.621094 20.449219 C 15.5 20.25 15.328125 20.128906 15.089844 20.078125 C 14.871094 20.011719 14.648438 20.03125 14.449219 20.148438 C 14.25 20.269531 14.109375 20.441406 14.03125 20.679688 L 13.78125 21.699219 C 13.78125 21.71875 13.78125 21.75 13.769531 21.78125 C 13.761719 21.808594 13.761719 21.851563 13.761719 21.871094 C 13.761719 21.898438 13.761719 21.929688 13.761719 21.960938 Z M 16.589844 23.578125 C 16.589844 23.769531 16.640625 23.941406 16.75 24.101563 C 16.859375 24.261719 17.011719 24.371094 17.21875 24.421875 C 17.378906 24.449219 17.46875 24.46875 17.488281 24.46875 C 17.878906 24.46875 18.140625 24.269531 18.261719 23.871094 L 18.5 22.808594 C 18.570313 22.589844 18.550781 22.378906 18.441406 22.179688 C 18.328125 21.980469 18.171875 21.839844 17.941406 21.769531 C 17.691406 21.710938 17.460938 21.738281 17.261719 21.859375 C 17.050781 21.980469 16.929688 22.160156 16.878906 22.390625 L 16.601563 23.378906 C 16.601563 23.429688 16.589844 23.5 16.589844 23.578125 Z M 17.949219 18.828125 C 17.949219 18.988281 18 19.148438 18.109375 19.300781 C 18.21875 19.449219 18.378906 19.570313 18.601563 19.640625 C 18.769531 19.660156 18.859375 19.671875 18.859375 19.671875 C 18.980469 19.671875 19.101563 19.640625 19.238281 19.589844 C 19.429688 19.488281 19.570313 19.320313 19.628906 19.070313 L 19.921875 18.03125 C 19.980469 17.808594 19.949219 17.601563 19.828125 17.398438 C 19.710938 17.199219 19.53125 17.058594 19.300781 16.988281 C 19.070313 16.921875 18.859375 16.941406 18.660156 17.058594 C 18.460938 17.179688 18.328125 17.351563 18.261719 17.589844 L 17.980469 18.609375 C 17.960938 18.699219 17.949219 18.769531 17.949219 18.828125 Z M 18.058594 8.980469 C 18.71875 8.339844 19.539063 8.019531 20.511719 8.019531 C 21.488281 8.019531 22.328125 8.371094 23.011719 9.058594 C 23.699219 9.75 24.039063 10.589844 24.039063 11.570313 C 24.039063 12.199219 23.878906 12.789063 23.550781 13.351563 C 22.558594 12.390625 21.398438 11.910156 20.058594 11.910156 L 19.738281 11.910156 C 19.441406 10.75 18.878906 9.769531 18.058594 8.980469 Z M 18.058594 8.980469 "/>
</g>
</svg>

<?xml version="1.0" encoding="utf-8"?>
<!-- Generator: Adobe Illustrator 22.0.1, SVG Export Plug-In . SVG Version: 6.00 Build 0)  -->
<svg version="1.1" id="Layer_1" xmlns="http://www.w3.org/2000/svg" xmlns:xlink="http://www.w3.org/1999/xlink" x="0px" y="0px"
	 viewBox="0 0 30 30" style="enable-background:new 0 0 30 30;" xml:space="preserve">
<path d="M4.25,16.86c0,1.1,0.33,2.09,1,2.98c0.67,0.88,1.52,1.48,2.57,1.8l-0.65,1.66c-0.04,0.14,0,0.21,0.14,0.21h2.12l-1.14,4.09
	h0.29l4.08-5.49c0.04-0.04,0.04-0.09,0.01-0.14c-0.03-0.05-0.08-0.07-0.15-0.07h-2.17l2.47-4.67c0.07-0.14,0.03-0.22-0.13-0.22H9.73
	c-0.09,0-0.16,0.05-0.19,0.14l-1.11,2.93c-0.71-0.18-1.3-0.57-1.78-1.17c-0.47-0.6-0.71-1.27-0.71-2.02c0-0.84,0.28-1.57,0.85-2.19
	s1.27-0.97,2.1-1.05l0.52-0.07c0.13,0,0.2-0.06,0.2-0.17l0.07-0.52c0.11-1.09,0.56-2,1.37-2.72c0.81-0.73,1.76-1.09,2.86-1.09
	c1.09,0,2.05,0.36,2.86,1.09c0.81,0.73,1.28,1.64,1.4,2.72l0.07,0.58c0,0.11,0.06,0.17,0.18,0.17h1.62c0.91,0,1.68,0.32,2.33,0.95
	c0.64,0.63,0.97,1.4,0.97,2.28c0,0.86-0.3,1.6-0.9,2.23c-0.6,0.63-1.33,0.97-2.2,1.04c-0.12,0-0.19,0.06-0.19,0.18v1.38
	c0,0.11,0.06,0.17,0.19,0.17c1.33-0.04,2.46-0.55,3.39-1.52c0.93-0.97,1.39-2.12,1.39-3.47c0-0.73-0.14-1.39-0.41-2
	c0.76-1,1.14-2.1,1.14-3.29c0-0.71-0.14-1.39-0.42-2.04c-0.28-0.65-0.66-1.2-1.12-1.67s-1.03-0.84-1.68-1.12
	c-0.65-0.28-1.33-0.42-2.03-0.42c-0.74,0-1.44,0.15-2.12,0.45c-0.67,0.3-1.26,0.72-1.74,1.26c-0.82-0.44-1.72-0.66-2.7-0.66
	c-1.42,0-2.68,0.44-3.77,1.31s-1.8,2-2.11,3.37c-1.11,0.26-2.02,0.83-2.74,1.73S4.25,15.71,4.25,16.86z M12.42,26.73
	c0,0.18,0.05,0.35,0.16,0.51c0.11,0.17,0.26,0.27,0.46,0.3c0.02,0,0.05,0,0.08,0.01s0.07,0.01,0.09,0.01s0.05,0,0.08,0
	c0.43-0.03,0.69-0.23,0.8-0.61l0.29-1.06c0.06-0.22,0.03-0.43-0.09-0.63c-0.12-0.2-0.3-0.34-0.53-0.41
	c-0.22-0.06-0.43-0.03-0.63,0.08c-0.2,0.12-0.34,0.3-0.41,0.53l-0.25,1C12.44,26.64,12.42,26.72,12.42,26.73z M13.76,21.96
	c0,0.15,0.05,0.3,0.15,0.45c0.1,0.15,0.26,0.26,0.46,0.34c0.22,0.08,0.43,0.06,0.63-0.05c0.2-0.11,0.33-0.29,0.4-0.53l0.3-1.04
	c0.06-0.25,0.04-0.48-0.08-0.68s-0.29-0.32-0.53-0.37c-0.22-0.07-0.44-0.05-0.64,0.07s-0.34,0.29-0.42,0.53l-0.25,1.02
	c0,0.02,0,0.05-0.01,0.08s-0.01,0.07-0.01,0.09C13.76,21.9,13.76,21.93,13.76,21.96z M16.59,23.58c0,0.19,0.05,0.36,0.16,0.52
	c0.11,0.16,0.26,0.27,0.47,0.32c0.16,0.03,0.25,0.05,0.27,0.05c0.39,0,0.65-0.2,0.77-0.6l0.24-1.06c0.07-0.22,0.05-0.43-0.06-0.63
	c-0.11-0.2-0.27-0.34-0.5-0.41c-0.25-0.06-0.48-0.03-0.68,0.09c-0.21,0.12-0.33,0.3-0.38,0.53l-0.28,0.99
	C16.6,23.43,16.59,23.5,16.59,23.58z M17.95,18.83c0,0.16,0.05,0.32,0.16,0.47c0.11,0.15,0.27,0.27,0.49,0.34
	c0.17,0.02,0.26,0.03,0.26,0.03c0.12,0,0.24-0.03,0.38-0.08c0.19-0.1,0.33-0.27,0.39-0.52l0.29-1.04c0.06-0.22,0.03-0.43-0.09-0.63
	c-0.12-0.2-0.3-0.34-0.53-0.41c-0.23-0.07-0.44-0.05-0.64,0.07s-0.33,0.29-0.4,0.53l-0.28,1.02C17.96,18.7,17.95,18.77,17.95,18.83z
	 M18.06,8.98c0.66-0.64,1.48-0.96,2.45-0.96c0.98,0,1.82,0.35,2.5,1.04c0.69,0.69,1.03,1.53,1.03,2.51c0,0.63-0.16,1.22-0.49,1.78
	c-0.99-0.96-2.15-1.44-3.49-1.44h-0.32C19.44,10.75,18.88,9.77,18.06,8.98z"/>
</svg>
